icons/medical_search.svg

<svg width="48" height="48" viewBox="0 0 48 48" fill="none" xmlns="http://www.w3.org/2000/svg">
<path fill-rule="evenodd" clip-rule="evenodd" d="M24 24H20V18L24 18V14H30V18H34V24H30V28H24V24ZM22 22V20L26 20V16H28V20H32V22H28V26H26V22H22Z" fill="black"/>
<path fill-rule="evenodd" clip-rule="evenodd" d="M26.9999 36C35.2842 36 41.9999 29.2843 41.9999 21C41.9999 12.7157 35.2842 6 26.9999 6C18.7156 6 11.9999 12.7157 11.9999 21C11.9999 24.7823 13.3998 28.2375 15.7096 30.876L13.8168 32.7689L11.1095 32.6479L4.58569 39.1716L8.82833 43.4143L15.3 36.9426L15.2956 34.1185L17.1239 32.2903C19.7624 34.6001 23.2177 36 26.9999 36ZM26.9999 34C34.1796 34 39.9999 28.1797 39.9999 21C39.9999 13.8203 34.1796 8 26.9999 8C19.8202 8 13.9999 13.8203 13.9999 21C13.9999 28.1797 19.8202 34 26.9999 34ZM8.82833 40.5858L7.41412 39.1716L11.9005 34.6852L13.2966 34.7477L13.2987 36.1155L8.82833 40.5858Z" fill="black"/>
</svg>

<svg
  xmlns="http://www.w3.org/2000/svg"
  width="24"
  height="24"
  viewBox="0 0 24 24"
  fill="none"
  stroke="currentColor"
  stroke-width="2"
  stroke-linecap="round"
  stroke-linejoin="round"
>
  <path
    fill-rule="evenodd"
    d="M24 24h-4v-6h4v-4h6v4h4v6h-4v4h-6zm-2-2v-2h4v-4h2v4h4v2h-4v4h-2v-4z"
    clip-rule="evenodd"
  />
  <path
    fill-rule="evenodd"
    d="M27 36c8.284 0 15-6.716 15-15S35.284 6 27 6s-15 6.716-15 15c0 3.782 1.4 7.238 3.71 9.876l-1.893 1.893-2.707-.121-6.524 6.524 4.242 4.242 6.472-6.471-.004-2.825 1.828-1.828A14.94 14.94 0 0 0 27 36m0-2c7.18 0 13-5.82 13-13S34.18 8 27 8s-13 5.82-13 13 5.82 13 13 13M8.828 40.586l-1.414-1.414 4.486-4.487 1.397.063.002 1.367z"
    clip-rule="evenodd"
  />
</svg>
